X: 1
T: The Road To Ballymac
R: reel
M: 4/4
L: 1/8
K: Gmaj
|:DG G2 BAGA | Bd d2 e2 de | gd d2 egde | gedB ABGE |
DG G2 BAGA | Bd d2 e2 de | gd d2 egdB |1 cAFA G2 GE :|2 cAFA G2 GA ||
|:Bd d2 edBd | egfg a2 ga | bg g2 egde | gedB AGEG |
Bd d2 edBd | eg g2 a2 ga | bgfg egdB |1 cAFA G2 GE :|2 cAFA G4 ||


Tune 2251	Setting 15618

